X:355
T:Templehouse
Z: id:dc-reel-332
M:C
L:1/8
K:E Minor
EFGA BGFE|D2FD ADFD|EDEF GABc|dBAc BEE2:|!
g2ef g2eg|fdd2 Add2|g2ef gfed|BdAc BEE2|!
g2ef g2eg|fdd2 Add2|efge afge|dBAc BEE2|]!

